X:1
T:He Is Not Here, But Is Risen!
T:James McGranahan
T:He Is Not Here, But Is Risen!
T:Public Domain
T:Public Domain
C:James McGranahan
Z:Public Domain
%%score ( 1 2 ) ( 3 4 )
L:1/8
M:4/4
K:G
V:1 treble 
V:2 treble 
V:3 bass 
V:4 bass 
V:1
"^Andantino" [DB]2 | [DB]3 [DB] [CA]2 [=FG]2 | [Ec]4 ([DB]2 [CA]2) | (B,2 E2) [EA]2 [EA]2 | %4
w: 1.~Oh,|day of aw- ful|sto- ry— *|Je- * sus is|
w: 2.~A|wea- ry night of|weep- ing— *|Je- * sus is|
w: 3.~A|day in sor- row|dawn- ing— *|Je- * sus is|
 [^DB]6 [DB]2 | [EB]3 [EB] [^DA]2 [EG]2 | (d2 c2) ([DB]2 [CA]2) | (B,2 E2) [^DF]2 [DF]2 | E6 || %9
w: Sad end|to hope of glo-|ry— * Je- *|is * dead! *||
w: A night|that knew no sleep-|ing— * Je- *|is * dead! *||
w: A sad|and gloom- y morn-|ing— * Je- *|is * dead! *||
[M:6/4]"^Refrain""^Allegretto" D2 | D4 D2 D4 D2 | (D2 E2) F2 G4 E2 | E4 E2 E4 E2 | %13
w: ||||
w: ||||
w: ||||
 (E2 F2) G2 A4 D2 | [DB]4 [GB]2 [G^c]2 [GB]2 [Gc]2 | [Ge]6 [Fd]4 [Ad]2 | %16
w: |||
w: |||
w: |||
 [Fd]4 [FA]2 [FA]2 [EG]2 [DF]2 | [^CE]6 D4 D2 | [Ac]4 [^GB]2 [Ac]4 [=GB]2 | %19
w: |||
w: |||
w: |||
 [FA]4 [^E^G]2 [FA]4 D2 | [Gd]4 [G^c]2 [Gd]4 [A=c]2 | [GB]4 [G^A]2 [GB]4 [DG]2 | %22
w: |||
w: |||
w: |||
 [DG]4 [DG]2 [=FG]2 [FA]2 [FB]2 | [Ec]6 [Ge]4 [Ge]2 | [Gd]4 [Gd]2 [Gd]2 [Gc]2 [GB]2 | [FA]6 G4 |] %26
w: ||||
w: ||||
w: ||||
V:2
 x2 | x8 | x8 | G4 x4 | x8 | x8 | E4 x4 | G4 x4 | E6 ||[M:6/4] D2 | D4 D2 D4 D2 | D2 E2 F2 G4 E2 | %12
w: |||dead!|||sus||||||
w: |||dead!|||sus||||||
w: |||dead!|||sus||||||
 E4 E2 E4 E2 | E2 F2 G2 A4 D2 | x12 | x12 | x12 | x6 D4 D2 | x12 | x10 D2 | x12 | x12 | x12 | x12 | %24
w: ||||||||||||
w: ||||||||||||
w: ||||||||||||
 x12 | x6 G4 |] %26
w: ||
w: ||
w: ||
V:3
 [G,,G,]2 | [G,,G,]3 [G,,G,] [A,,F,]2 [B,,G,]2 | [C,G,]4 ([D,G,]2 [^D,F,]2) | E,4 [C,E,]2 [C,E,]2 | %4
w: ~|~ ~ ~ ~|~ ~ *|~ ~ ~|
 [B,,F,]6 [B,,F,]2 | [B,,G,]3 [B,,G,] [B,,F,]2 [E,G,]2 | [C,G,]4 [G,,G,]2 [A,,F,]2 | %7
w: ~ ~|~ ~ ~ ~|~ ~ ~|
 (G,2 B,2) [B,,A,]2 [B,,A,]2 | [E,G,]6 ||[M:6/4] D,2 | D,4 D,2 D,4 D,2 | (D,2 E,2) F,2 G,4 E,2 | %12
w: ~ * ~ ~|hold|the|is rolled a- way!|have * come to say:|
 E,4 E,2 E,4 E,2 | (E,2 F,2) G,2 A,4 [D,D]2 | [G,D]4 [G,D]2 A,2 A,2 A,2 | [A,^C]6 D4 [F,D]2 | %16
w: is ris- en! He|is * ris- en!” The|past and gone— A- rise,|glor- ious morn!|
 [A,D]4 [A,D]2 [A,,D]2 [A,,A,]2 [A,,A,]2 | (A,4 G,2) [D,F,]4 [G,B,]2 | %18
w: is not here, but is|ris- * en! He|
 [D,D]4 [D,D]2 [D,D]4 [D,D]2 | [D,D]4 [D,D]2 (D,2 E,2) [F,C]2 | [G,B,]4 [G,^A,]2 [G,B,]4 [F,D]2 | %21
w: not here, but is|ris- en!” * * *||
 [G,D]4 [G,^C]2 [G,D]4 [G,B,]2 | [G,B,]4 [G,B,]2 [B,D]2 [A,C]2 [G,B,]2 | [C,G,]6 [C,C]4 [^C,^A,]2 | %24
w: |||
 [D,B,]4 [D,B,]2 [D,B,]2 [D,E]2 [D,D]2 | [D,C]6 [G,,G,B,]4 |] %26
w: ||
V:4
 x2 | x8 | x8 | E,4 x4 | x8 | x8 | x8 | B,,4 x4 | x6 ||[M:6/4] D,2 | D,4 D,2 D,4 D,2 | %11
w: |||~||||Be-||stone|And shin- ing ones|
 D,2 E,2 F,2 G,4 E,2 | E,4 E,2 E,4 E,2 | E,2 F,2 G,2 A,4 x2 | x6 A,2 A,2 A,2 | x6 D4 x2 | x12 | %17
w: “He is not here, but|is not here, but|night of death is|and greet the|“He||
 A,,6 x6 | x12 | x6 D4 x2 | x12 | x12 | x12 | x12 | x12 | x10 |] %26
w: is|||||||||

